X: 2033
M: C
L: 1/8
K: A
ue |\
vA<uAve>uA vf<uAve>u=g | =G<Gd>B =g>edB |\
ug |\
{g}a2 ue>ug va>uevc>uA |
=g2 d>g B>g(B<=G) |\
[1 a2 e>g a>ec>A | B<=G B<d e<A A :|\
[2 A>B=c>d e>dB>=g | =G>AB>d e<A A |]


